X: 37392
T: Sleepless In Syros
R: reel
M: 4/4
K: Gmajor
|:dcde fA A2|dcde fA A2|g3f e3d|cAeA egfe|
dcde fA A2|dAeA fA A2|g3f e3d|cdec d3A:|
|:g3f eAce|dfaf gfed|cA A2 cAeA|eA A2 eAfA|
g3f eA A2|dAeA fA A2|g3f e3d|cdec d3A:|

